icon-svg/garbage-cardboard.svg

<?xml version="1.0" encoding="UTF-8" standalone="no"?>
<svg
   id="Livello_1"
   data-name="Livello 1"
   viewBox="0 0 24 24"
   version="1.1"
   width="24"
   height="24"
   xmlns="http://www.w3.org/2000/svg"
   xmlns:svg="http://www.w3.org/2000/svg">
  <path id="Colore_riempimento_1" fill="#44739e" data-name="Colore riempimento 1" class="cls-1"
     d="M 12.724609,3.5058594 C 12.43277,3.5810593 12.155648,3.6345463 11.892578,3.7226562 10.22858,4.2806024 8.5672483,4.8441568 6.90625,5.4101562 5.6544213,5.8367058 4.3938781,6.2444805 3.1621094,6.71875 2.8582597,6.8357399 2.6489041,7.1760627 2.3964844,7.4140625 2.6652741,7.6577023 2.9284115,7.9076252 3.2070312,8.140625 a 0.74619,0.74619 0 0 0 0.2871094,0.091797 c 2.2255378,0.5560894 4.4478129,1.1280942 6.6816404,1.6523437 a 2.67924,2.67924 0 0 0 1.34375,-0.00781 C 14.772055,8.8515008 18.012098,7.7927708 21.240234,6.7011719 21.552284,6.595652 21.754713,6.1951404 22.007812,5.9316406 21.707453,5.7088608 21.439792,5.3682662 21.101562,5.2851562 19.543074,4.9022266 17.965057,4.586289 16.392578,4.2558594 c -1.222709,-0.2569398 -2.44705,-0.5013203 -3.667969,-0.75 z m 7.539063,5.15625 a 4.70815,4.70815 0 0 0 -0.666016,0.054687 c -2.540597,0.7432692 -5.029652,1.6466956 -7.568359,2.3964846 a 4.88412,4.88412 0 0 1 -2.2343751,0.06641 C 8.1709335,10.858898 6.572704,10.415766 4.9785156,9.9726562 A 2.34954,2.34954 0 0 0 3.1445312,10.121094 3.50889,3.50889 0 0 0 2.4003906,10.912109 c 0.2709998,0.21933 0.5061597,0.548152 0.8183594,0.638672 1.3442787,0.38982 2.7096039,0.715445 4.0703125,1.052735 1.1605588,0.287669 2.3247287,0.560144 3.4921875,0.839843 0.3692,-0.08191 0.722851,-0.133094 1.056641,-0.240234 1.647318,-0.528749 3.289275,-1.074039 4.933593,-1.611328 1.523469,-0.49779 3.056108,-0.97425 4.566407,-1.505859 A 1.17546,1.17546 0 0 0 21.974609,9.4492188 0.7169,0.7169 0 0 0 21.585938,8.8417969 4.70815,4.70815 0 0 0 20.263672,8.6621094 Z m 0,3.3964846 a 4.63553,4.63553 0 0 0 -0.646484,0.06055 c -2.468908,0.726749 -4.886472,1.609448 -7.355469,2.335937 A 5.63353,5.63353 0 0 1 9.8671875,14.591797 C 8.5858288,14.386697 7.3460206,13.954692 6.0761719,13.669922 5.1077428,13.452732 4.1296821,12.88768 3.1269531,13.537109 2.8444534,13.720079 2.440615,14.02111 2.453125,14.25 c 0.01328,0.24255 0.4171403,0.583448 0.71875,0.673828 1.1949588,0.35808 2.4161075,0.637807 3.6289062,0.941406 1.3111287,0.32821 2.6226545,0.650343 3.9394528,0.976563 0.44432,-0.09748 0.87849,-0.15642 1.28711,-0.287109 1.795188,-0.57413 3.583498,-1.167814 5.373047,-1.757813 1.330158,-0.43855 2.66747,-0.86241 3.980468,-1.34375 a 1.10581,1.10581 0 0 0 0.59961,-0.652344 c 0.04479,-0.15956 -0.244901,-0.5636 -0.431641,-0.59375 a 4.63553,4.63553 0 0 0 -1.285156,-0.148437 z m -0.07617,3.375 a 3.987,3.987 0 0 0 -0.574219,0.06836 c -1.594208,0.44813 -3.169054,0.971236 -4.720703,1.541016 -2.278758,0.836789 -4.539919,1.591738 -6.9667968,0.505859 A 4.48026,4.48026 0 0 0 7.1855469,17.351562 C 6.1710879,17.096733 5.1564227,16.843257 4.1523438,16.591797 a 3.58068,3.58068 0 0 0 -0.8886719,0.285156 6.78572,6.78572 0 0 0 -0.8652344,0.787109 c 0.3080997,0.24048 0.5781979,0.606172 0.9296875,0.701172 2.3156444,0.62408 4.6411315,1.209847 6.976563,1.759766 a 2.69011,2.69011 0 0 0 1.33789,-0.06836 c 2.118518,-0.65364 4.219644,-1.356243 6.326172,-2.044922 1.138499,-0.3722 2.286945,-0.722911 3.402344,-1.150391 a 1.05533,1.05533 0 0 0 0.595703,-0.722656 c 0.01666,-0.18957 -0.376476,-0.548343 -0.634766,-0.595703 A 3.987,3.987 0 0 0 20.1875,15.433594 Z" />
</svg>

<svg xmlns="http://www.w3.org/2000/svg" data-name="Livello 1" viewBox="0 0 24 24"><path fill="#44739e" d="M12.7246 3.5059c-.2918.0752-.569.1286-.832.2168a1066 1066 0 0 0-4.9863 1.6875c-1.2519.4265-2.5124.8343-3.7442 1.3086-.3038.117-.5132.4573-.7656.6953.2688.2436.532.4935.8105.7265a.75.75 0 0 0 .2871.0918c2.2256.5561 4.4479 1.1281 6.6817 1.6524a2.68 2.68 0 0 0 1.3437-.0078 495 495 0 0 0 9.7207-3.1758c.312-.1055.5145-.506.7676-.7696-.3003-.2227-.568-.5633-.9062-.6464-1.5585-.383-3.1365-.699-4.709-1.0293-1.2227-.257-2.447-.5014-3.668-.75m7.539 5.1562a4.7 4.7 0 0 0-.666.0547c-2.5405.7433-5.0296 1.6467-7.5683 2.3965a4.884 4.884 0 0 1-2.2344.0664c-1.624-.3208-3.2222-.764-4.8164-1.207a2.35 2.35 0 0 0-1.834.1484 3.51 3.51 0 0 0-.7441.791c.271.2193.5062.5482.8184.6387 1.3442.3898 2.7096.7154 4.0703 1.0527 1.1605.2877 2.3247.5602 3.4922.8399.3692-.082.7228-.1331 1.0566-.2403 1.6473-.5287 3.2893-1.074 4.9336-1.6113 1.5235-.4978 3.056-.9743 4.5664-1.5059a1.176 1.176 0 0 0 .6367-.6367.717.717 0 0 0-.3887-.6074 4.7 4.7 0 0 0-1.3222-.1797m0 3.3965a4.6 4.6 0 0 0-.6464.0605c-2.469.7268-4.8865 1.6095-7.3555 2.336a5.63 5.63 0 0 1-2.3945.1367c-1.2814-.2051-2.5212-.6371-3.791-.9219-.9685-.2172-1.9465-.7822-2.9492-.1328-.2825.183-.6864.484-.6739.7129.0133.2426.4172.5834.7188.6738 1.195.3581 2.416.6378 3.6289.9414 1.3111.3282 2.6226.6504 3.9394.9766.4444-.0975.8785-.1564 1.2871-.2871 1.7952-.5741 3.5835-1.1678 5.373-1.7578 1.3302-.4386 2.6676-.8624 3.9806-1.3438a1.106 1.106 0 0 0 .5996-.6523c.0448-.1596-.245-.5636-.4317-.5938a4.64 4.64 0 0 0-1.2851-.1484m-.0761 3.375a4 4 0 0 0-.5742.0684c-1.5942.448-3.169.9712-4.7207 1.541-2.2788.8368-4.54 1.5917-6.9668.5058a4.5 4.5 0 0 0-.7403-.1972c-1.0144-.2549-2.029-.5083-3.0332-.7598a3.58 3.58 0 0 0-.8886.2852 6.8 6.8 0 0 0-.8653.787c.3081.2405.5782.6062.9297.7012a225 225 0 0 0 6.9766 1.7598 2.69 2.69 0 0 0 1.3379-.0684c2.1185-.6536 4.2196-1.3562 6.3261-2.0449 1.1385-.3722 2.287-.7229 3.4024-1.1504a1.055 1.055 0 0 0 .5957-.7226c.0167-.1896-.3765-.5484-.6348-.5957a3.99 3.99 0 0 0-1.1445-.1094" class="cls-1" data-name="Colore riempimento 1"/></svg>
